X:1
T:How Long, How Long Blues
M:4/4
L:1/8
K:C
 c c-| c6 c _B-| B6 ^GA| c c3 c2 c2| C6| _A G-| G6 G D-| D6 G,3.99999962500005/5.99999925000009 A,3.99999962500005/5.99999925000009 C3.99999962500005/5.99999925000009|\
 C8-| C4 z2||
